X:193
M:6/8
L:1/8
Q:3/8=120
K:G
d^cd efg|faf e2 g|fed Ad^c|d3-d2:|
|:d|afd afd|c2 c B2 c|dgd dgd|dcB A2 A|\

